assets/oopspamLogo.svg

<svg height="95" viewBox="0 0 392 95" width="392" xmlns="http://www.w3.org/2000/svg"><g fill="#fff" fill-rule="evenodd" transform="translate(0 -1)"><path d="m84.91 64.59c-7.57-2.33-15.1-5.89-17.17-14.41-1.74-7.06 1.65-15.35 6.66-20.31 3.15-3.13 7.31-5.92 9.42-10 1.82-3.47.31-7.12-3.77-7.27-6.05-.18-12.64 6.29-18.66 4.3-4.06-1.34-4.89-7-7.07-10.07-1.3985126-2.00616534-3.3615781-3.55155727-5.64-4.44-4.6974879-1.898513-9.957015-1.85174566-14.62.13-5.68 2.58-7.72 8.48-11.71 12.87-.1326279.1501278-.2530132.3106414-.36.48-3.43 2.31-5.25 2.36-8.65-.58-2.21-1.91-4.47-5.29-7.61-5.64-6.59-.65-6.62 6.66-4.42 10.81 2.06 3.87 5.36 6.85 6.69 11.14 1.31545551 4.5158776.96045986 9.3544683-1 13.63-2.45 5.85-6.14 12.77-1.82 18.7 4.05 5.6 11.75 4.83 17.58 3 3.51-1.07 6.87-2.69 10.48-3.42 4.73-1 9.27.21 13.71 1.83 7.13 2.6 13.26 5 20.94 4.91 5.25 0 11.92.77 17-.8 1.0667562-.3255301 1.8070596-1.2951666 1.84-2.41v-.04c-.0048068-1.1181465-.7458449-2.0994112-1.82-2.41zm-51.44-24.14c-5.1455599-.1309338-9.2130364-4.4042452-9.09-9.55-.1230364-5.1457548 3.9444401-9.4190662 9.09-9.55 5.1455599.1309338 9.2130364 4.4042452 9.09 9.55.1230364 5.1457548-3.9444401 9.4190662-9.09 9.55zm20.19-.72c-2.9286697-.0165464-5.2909778-2.4011913-5.2799624-5.3298871.0110154-2.9286957 2.3911946-5.2955032 5.319906-5.2900188 2.9287113.0054843 5.3000097 2.3811894 5.3000564 5.3099059.0027089 1.4143378-.5599931 2.7710903-1.562896 3.7683589-1.0029028.9972685-2.3628039 1.552318-3.777104 1.5416411z" fill-rule="nonzero"/><path d="m115.06 18.87c14.31292-.0054677 25.923363 11.5871488 25.939888 25.9000604.016525 14.3129117-11.567118 25.9323071-25.880013 25.9598896-14.312894.0275824-25.9412351-11.547081-25.979875-25.85995-.0292818-6.8906961 2.689597-13.5087786 7.5545854-18.3887825 4.8649886-4.8800039 11.4746606-7.6192644 18.3654146-7.6112175zm0 48.68c9.21283.0040042 17.519418-5.5463298 21.041246-14.0594367s1.564184-18.3097-4.958868-24.815548-16.32478-8.437614-24.828557-4.8933166c-8.5037766 3.5442973-14.0321548 11.8655135-14.003821 21.0783013.0079512 6.0257203 2.4092876 11.8014835 6.6757413 16.0566851 4.2664537 4.2552015 10.0485387 6.6412766 16.0742587 6.6333149zm54.21-48.68c14.31292-.0054677 25.923363 11.5871488 25.939888 25.9000604.016525 14.3129117-11.567118 25.9323071-25.880013 25.9598896-14.312894.0275824-25.941235-11.547081-25.979875-25.85995-.029282-6.8906961 2.689597-13.5087786 7.554585-18.3887825 4.864989-4.8800039 11.474661-7.6192644 18.365415-7.6112175zm0 48.68c9.21283.0040042 17.519418-5.5463298 21.041246-14.0594367s1.564184-18.3097-4.958868-24.815548-16.32478-8.437614-24.828557-4.8933166c-8.503777 3.5442973-14.032155 11.8655135-14.003821 21.0783013.005298 6.0265371 2.405784 11.8038438 6.672814 16.0596201s10.050656 6.640997 16.077186 6.6303799zm30.46-47.02c.029042-.5028266.427513-.9055815.93-.94h15.49c8.969104-.01933 16.25567 7.2358957 16.275 16.205s-7.235896 16.25567-16.205 16.275h-13.11v17c0 .5-.43.93-1.15.93h-1.3c-.498928-.0338578-.896142-.4310717-.93-.93zm16.27 28.22c7.189004-.0711638 12.983926-5.910662 13-13.1-.147673-7.0886014-5.980356-12.7338539-13.07-12.65h-12.82v25.75z" fill-rule="nonzero" stroke="#fff" stroke-width=".5"/><path d="m235.87 63.3.65-.87c.5-.57 1-.79 1.58-.28.72.64 6.05 5.54 13.33 5.54 6.55 0 12.09-4.39 12.09-9.65 0-6.41-5.25-9.29-14-12.24-8.35-2.95-13.89-5.9-13.89-14.18 0-5.4 4.32-12.75 15.55-12.75 4.38744.0497146 8.67431 1.3205395 12.38 3.67.26344.1430974.448781.3968385.504965.6913224.056185.2944838-.022715.5986395-.214965.8286776-.217302.2924163-.40806.6036521-.57.93-.124657.2988384-.386293.5188232-.702096.5903257-.315803.0715024-.64668-.0143284-.887904-.2303257-3.156504-2.0343079-6.798129-3.1906531-10.55-3.35-8.86 0-12.14 5.44-12.14 9.54 0 6.12 4.68 8.79 11.95 11.16 9.87 3.39 16.13 6.85 16.13 15.2 0 7.2-7.42 12.82-15.7 12.82-5.63166-.0718649-11.048989-2.1699262-15.26-5.91-.46-.36-.82-.72-.25-1.51z" stroke="#fff" stroke-width=".5"/><path d="m275.22 94.73c-.010682.6140798-.50592 1.1093179-1.12 1.12h-1.47c-.61408-.0106821-1.109318-.5059202-1.12-1.12v-58.09c.010384-.3095164.144101-.6020299.371375-.8123987.227273-.2103687.52923-.3211242.838625-.3076013h.94c.248047-.0249668.495475.0529231.68449.2154765.189016.1625534.303066.3955343.31551.6445235l.26 2.41c3.153514-2.6748249 7.154866-4.1421056 11.29-4.14 9.57 0 16.64 8 16.64 18.11s-7.25 18.1-17.42 18.1c-3.729365.0792621-7.364401-1.1761553-10.25-3.54zm9.78-27.49c8.36 0 14-6.38 14-14.57 0-8-5.26-14.48-13.1-14.48-4.071791-.0478817-7.954769 1.7141112-10.6 4.81v20.19c2.552076 2.6069762 6.051838 4.0682173 9.7 4.05zm35.9-19.48c2.966751.0556989 5.906171.5787873 8.71 1.55 0-7.59-.78-11.38-7.59-11.38-3.572873.0348429-7.097492.8290752-10.34 2.33-.261625.1276456-.568527.1224215-.825656-.0140545-.257128-.1364759-.433446-.3877301-.474344-.6759455l-.43-1c-.129095-.2363584-.145559-.5181081-.04487-.7678934.100688-.2497854.307946-.4413528.56487-.5221066.26-.17 4.66-2.59 11.81-2.59 10.52 0 11 6.3 11 15.09v19.09c-.002577.3058789-.127972.5978898-.347997.8103928-.220025.2125029-.516219.3276678-.822003.3196072h-1c-.6 0-.86-.34-1-.94l-.35-3.11c-3.24968 3.0741373-7.527607 4.8280873-12 4.92-6.38 0-11.29-4.4-11.29-11.47-.05-6.64 5.38-11.64 14.43-11.64zm-2.76 19.74c4.404915-.0937857 8.56742-2.0353207 11.47-5.35v-9.48c-2.752796-1.1806286-5.714741-1.7961418-8.71-1.81-6.55 0-10.95 3.36-10.95 8.45-.119704 2.2066472.704658 4.3600835 2.267287 5.9227128 1.56263 1.5626294 3.716066 2.3869912 5.922713 2.2672872z" fill-rule="nonzero"/><path d="m338.52 36.64c.00543-.6162956.503704-1.1145698 1.12-1.12h1c.493276-.0070337.908065.3684594.95.86l.43 3.7c2.924832-3.5324824 7.30497-5.5328317 11.89-5.43 5.26 0 9.14 2.25 11.3 6.3 3.203043-3.8622488 7.914401-6.1578058 12.93-6.3 9.39 0 13.44 6.12 13.44 15.78v18.44c.000382.6087888-.481593 1.1084501-1.09 1.13h-1.72c-.278596-.0118967-.539571-.1395781-.719948-.352232-.180376-.212654-.263768-.490964-.230052-.767768v-18.45c0-7.93-3.45-12.07-9.91-12.07s-10.26 4.48-11.38 5.86c.547655 2.0236287.810188 4.1137919.78 6.21v18.44c-.005431.6218183-.508182 1.124569-1.13 1.13h-1.63c-.28738.0020776-.561762-.1195851-.753167-.3339581-.191404-.214373-.281327-.5007322-.246833-.7860419v-18.45c0-7.93-3.53-12.07-10-12.07-4.483324.073517-8.654973 2.3083291-11.2 6v24.51c.046362.3171484-.062109.637301-.2917.8609539s-.552475.3236999-.8683.2690461h-1.73c-.276818-.0145824-.535164-.1434146-.713369-.3557441s-.260279-.4891038-.226631-.7642559z"/></g></svg>

<svg xmlns="http://www.w3.org/2000/svg" width="392" height="95" viewBox="0 0 392 95">
  <path fill="#FFF" fill-rule="evenodd" d="M84.91 64.59C77.34 62.26 69.81 58.7 67.74 50.18 66 43.12 69.39 34.83 74.4 29.87 77.55 26.74 81.71 23.95 83.82 19.87 85.64 16.4 84.13 12.75 80.05 12.6 74 12.42 67.41 18.89 61.39 16.9 57.33 15.56 56.5 9.9 54.32 6.83 52.9214874 4.82383466 50.9584219 3.27844273 48.68 2.39 43.9825121.491487 38.722985.53825434 34.06 2.52 28.38 5.1 26.34 11 22.35 15.39 22.2173721 15.5401278 22.0969868 15.7006414 21.99 15.87 18.56 18.18 16.74 18.23 13.34 15.29 11.13 13.38 8.87 10 5.73 9.65-.86 9-.89 16.31 1.31 20.46 3.37 24.33 6.67 27.31 8 31.6 9.31545551 36.1158776 8.96045986 40.9544683 7 45.23 4.55 51.08.86 58 5.18 63.93 9.23 69.53 16.93 68.76 22.76 66.93 26.27 65.86 29.63 64.24 33.24 63.51 37.97 62.51 42.51 63.72 46.95 65.34 54.08 67.94 60.21 70.34 67.89 70.25 73.14 70.25 79.81 71.02 84.89 69.45 85.9567562 69.1244699 86.6970596 68.1548334 86.73 67.04L86.73 67C86.7251932 65.8818535 85.9841551 64.9005888 84.91 64.59zM33.47 40.45C28.3244401 40.3190662 24.2569636 36.0457548 24.38 30.9 24.2569636 25.7542452 28.3244401 21.4809338 33.47 21.35 38.6155599 21.4809338 42.6830364 25.7542452 42.56 30.9 42.6830364 36.0457548 38.6155599 40.3190662 33.47 40.45zM53.66 39.73C50.7313303 39.7134536 48.3690222 37.3288087 48.3800376 34.4001129 48.391053 31.4714172 50.7712322 29.1046097 53.6999436 29.1100941 56.6286549 29.1155784 58.9999533 31.4912835 59 34.42 59.0027089 35.8343378 58.4400069 37.1910903 57.437104 38.1883589 56.4342012 39.1856274 55.0743001 39.7406769 53.66 39.73zM115.06 18.87C129.37292 18.8645323 140.983363 30.4571488 140.999888 44.7700604 141.016413 59.0829721 129.43277 70.7023675 115.119875 70.72995 100.806981 70.7575324 89.1786399 59.182869 89.14 44.87 89.1107182 37.9793039 91.829597 31.3612214 96.6945854 26.4812175 101.559574 21.6012136 108.169246 18.8619531 115.06 18.87zM115.06 67.55C124.27283 67.5540042 132.579418 62.0036702 136.101246 53.4905633 139.623074 44.9774564 137.66543 35.1808633 131.142378 28.6750153 124.619326 22.1691673 114.817598 20.2374013 106.313821 23.7816987 97.8100444 27.325996 92.2816662 35.6472122 92.31 44.86 92.3179512 50.8857203 94.7192876 56.6614835 98.9857413 60.9166851 103.252195 65.1718866 109.03428 67.5579617 115.06 67.55zM169.27 18.87C183.58292 18.8645323 195.193363 30.4571488 195.209888 44.7700604 195.226413 59.0829721 183.64277 70.7023675 169.329875 70.72995 155.016981 70.7575324 143.38864 59.182869 143.35 44.87 143.320718 37.9793039 146.039597 31.3612214 150.904585 26.4812175 155.769574 21.6012136 162.379246 18.8619531 169.27 18.87zM169.27 67.55C178.48283 67.5540042 186.789418 62.0036702 190.311246 53.4905633 193.833074 44.9774564 191.87543 35.1808633 185.352378 28.6750153 178.829326 22.1691673 169.027598 20.2374013 160.523821 23.7816987 152.020044 27.325996 146.491666 35.6472122 146.52 44.86 146.525298 50.8865371 148.925784 56.6638438 153.192814 60.9196201 157.459844 65.1753964 163.24347 67.5606171 169.27 67.55zM199.73 20.53C199.759042 20.0271734 200.157513 19.6244185 200.66 19.59L216.15 19.59C225.119104 19.57067 232.40567 26.8258957 232.425 35.795 232.44433 44.7641043 225.189104 52.05067 216.22 52.07L203.11 52.07 203.11 69.07C203.11 69.57 202.68 70 201.96 70L200.66 70C200.161072 69.9661422 199.763858 69.5689283 199.73 69.07L199.73 20.53zM216 48.75C223.189004 48.6788362 228.983926 42.839338 229 35.65 228.852327 28.5613986 223.019644 22.9161461 215.93 23L203.11 23 203.11 48.75 216 48.75zM235.87 63.3L236.52 62.43C237.02 61.86 237.52 61.64 238.1 62.15 238.82 62.79 244.15 67.69 251.43 67.69 257.98 67.69 263.52 63.3 263.52 58.04 263.52 51.63 258.27 48.75 249.52 45.8 241.17 42.85 235.63 39.9 235.63 31.62 235.63 26.22 239.95 18.87 251.18 18.87 255.56744 18.9197146 259.85431 20.1905395 263.56 22.54 263.82344 22.6830974 264.008781 22.9368385 264.064965 23.2313224 264.12115 23.5258062 264.04225 23.8299619 263.85 24.06 263.632698 24.3524163 263.44194 24.6636521 263.28 24.99 263.155343 25.2888384 262.893707 25.5088232 262.577904 25.5803257 262.262101 25.6518281 261.931224 25.5659973 261.69 25.35 258.533496 23.3156921 254.891871 22.1593469 251.14 22 242.28 22 239 27.44 239 31.54 239 37.66 243.68 40.33 250.95 42.7 260.82 46.09 267.08 49.55 267.08 57.9 267.08 65.1 259.66 70.72 251.38 70.72 245.74834 70.6481351 240.331011 68.5500738 236.12 64.81 235.66 64.45 235.3 64.09 235.87 63.3zM275.22 94.73C275.209318 95.3440798 274.71408 95.8393179 274.1 95.85L272.63 95.85C272.01592 95.8393179 271.520682 95.3440798 271.51 94.73L271.51 36.64C271.520384 36.3304836 271.654101 36.0379701 271.881375 35.8276013 272.108648 35.6172326 272.410605 35.5064771 272.72 35.52L273.66 35.52C273.908047 35.4950332 274.155475 35.5729231 274.34449 35.7354765 274.533506 35.8980299 274.647556 36.1310108 274.66 36.38L274.92 38.79C278.073514 36.1151751 282.074866 34.6478944 286.21 34.65 295.78 34.65 302.85 42.65 302.85 52.76 302.85 62.87 295.6 70.86 285.43 70.86 281.700635 70.9392621 278.065599 69.6838447 275.18 67.32L275.22 94.73zM285 67.24C293.36 67.24 299 60.86 299 52.67 299 44.67 293.74 38.19 285.9 38.19 281.828209 38.1421183 277.945231 39.9041112 275.3 43L275.3 63.19C277.852076 65.7969762 281.351838 67.2582173 285 67.24zM320.9 47.76C323.866751 47.8156989 326.806171 48.3387873 329.61 49.31 329.61 41.72 328.83 37.93 322.02 37.93 318.447127 37.9648429 314.922508 38.7590752 311.68 40.26 311.418375 40.3876456 311.111473 40.3824215 310.854344 40.2459455 310.597216 40.1094696 310.420898 39.8582154 310.38 39.57L309.95 38.57C309.820905 38.3336416 309.804441 38.0518919 309.90513 37.8021066 310.005818 37.5523212 310.213076 37.3607538 310.47 37.28 310.73 37.11 315.13 34.69 322.28 34.69 332.8 34.69 333.28 40.99 333.28 49.78L333.28 68.87C333.277423 69.1758789 333.152028 69.4678898 332.932003 69.6803928 332.711978 69.8928957 332.415784 70.0080606 332.11 70L331.11 70C330.51 70 330.25 69.66 330.11 69.06L329.76 65.95C326.51032 69.0241373 322.232393 70.7780873 317.76 70.87 311.38 70.87 306.47 66.47 306.47 59.4 306.42 52.76 311.85 47.76 320.9 47.76zM318.14 67.5C322.544915 67.4062143 326.70742 65.4646793 329.61 62.15L329.61 52.67C326.857204 51.4893714 323.895259 50.8738582 320.9 50.86 314.35 50.86 309.95 54.22 309.95 59.31 309.830296 61.5166472 310.654658 63.6700835 312.217287 65.2327128 313.779917 66.7953422 315.933353 67.619704 318.14 67.5zM338.52 36.64C338.52543 36.0237044 339.023704 35.5254302 339.64 35.52L340.64 35.52C341.133276 35.5129663 341.548065 35.8884594 341.59 36.38L342.02 40.08C344.944832 36.5475176 349.32497 34.5471683 353.91 34.65 359.17 34.65 363.05 36.9 365.21 40.95 368.413043 37.0877512 373.124401 34.7921942 378.14 34.65 387.53 34.65 391.58 40.77 391.58 50.43L391.58 68.87C391.580382 69.4787888 391.098407 69.9784501 390.49 70L388.77 70C388.491404 69.9881033 388.230429 69.8604219 388.050052 69.647768 387.869676 69.435114 387.786284 69.156804 387.82 68.88L387.82 50.43C387.82 42.5 384.37 38.36 377.91 38.36 371.45 38.36 367.65 42.84 366.53 44.22 367.077655 46.2436287 367.340188 48.3337919 367.31 50.43L367.31 68.87C367.304569 69.4918183 366.801818 69.994569 366.18 70L364.55 70C364.26262 70.0020776 363.988238 69.8804149 363.796833 69.6660419 363.605429 69.4516689 363.515506 69.1653097 363.55 68.88L363.55 50.43C363.55 42.5 360.02 38.36 353.55 38.36 349.066676 38.433517 344.895027 40.6683291 342.35 44.36L342.35 68.87C342.396362 69.1871484 342.287891 69.507301 342.0583 69.7309539 341.828709 69.9546068 341.505825 70.0546538 341.19 70L339.46 70C339.183182 69.9854176 338.924836 69.8565854 338.746631 69.6442559 338.568426 69.4319264 338.486352 69.1551521 338.52 68.88L338.52 36.64z" transform="translate(0 -1)"/>
</svg>
